X: 1
T: Harmonika
O: Israel
M: 4/4
L: 1/8
Z: 1998 by John Chambers <jc:trillian.mit.edu>
W: Hey, accordion, play for me the hora that we once danced in Galilee.
W: We will always remember the hora that we once danced in Galilee.
P: in Em:
K:Em
|: "Em"z B2 A B2 B2 | "Am"z A2 B "Em"G>F E2 | "Am"z F2 G "B7"A2 B2 | "Em"(G/2F/2E-E6) :|
w: Hey, har-mo-ni-ka, nag-ni-*li, she ye-rad kol tzlil.
w: et ha-ho-ra she ra-ka-de-nu ya-chad ba-Ga-lil.
|| "D"z D2 D d2 d2 | "D7"z c2 d "G"B>A G2 | "D"z D2 D "D7"d2 c2 | "G"B4- "B7"B4 ||
w: Hey, Har-mo-ni-ka, nag-ni-*li, she ye-rad kol tzlil.
|| "Em"z B2 A B2 B2 | "Am"z A2 B "Em"G>F E2 | "Am"z F2 G "B7"A2 B2 | "Em"E8 ||
w: et ha-ho-ra she ra-ka-de-nu ya-chad ba-Ga-lil.
|| "Em"B2 AG B2 AG | BB "Am"cc "Em"BB AG | "Em"GG FE G>G "Am"A2 |
w: Od* niz-ko-ra,* od niz-ko-ra et ha-ho-ra, ho-ra she ra-ka-de-nu
|1 "Em"GG FE "B7"B4 :|2 "Em"GG "B7"FF "Em"E4 |]
w: ya-chad ba-Ga-lil.  ya-chad ba-Ga-lil.
w:
%%sep 5 5 100
P: in F#m:
K:F#m
|: "F#m"z c2 B c2 c2 | "Bm"z B2 c "F#m"A>G F2 | "Bm"z G2 A "C#7"B2 c2 | "F#m"A/2G/2F-F6 :|
|| "E"z E2 E e2 e2 | "E7"z d2 e "A"c>B A2 | "E"z E2 E "E7"e2 d2 | "A"c4- "C#7"c4 ||
|| "F#m"z c2 B c2 c2 | "Bm"z B2 c "F#m"A>G F2 | "Bm"z G2 A "C#7"B2 c2 | "F#m"F8 ||
|| "F#m"c2 BA c2 BA | cc "Bm"dd "F#m"cc BA | "F#m"AA GF A2 "Bm"B2 |1 "F#m"AA GF "C#7"c4 :|2 "F#m"AA "C#7"GG "F#m"F4 |]

%%sep 1 1 500

